icons/document-star-outline.svg

<svg xmlns="http://www.w3.org/2000/svg" width="24" height="24" viewBox="0 0 24 24">
  <path d="M12,1 L12,8 C12,8.55228475 12.4477153,9 13,9 L20,9 L20,21 C20,22.1045695 19.1045695,23 18,23 L6,23 C4.8954305,23 4,22.1045695 4,21 L4,3 C4,1.8954305 4.8954305,1 6,1 L12,1 Z M10,3 L6,3 L6,21 L18,21 L18,11 L13,11 C11.4023191,11 10.0963391,9.75108004 10.0050927,8.17627279 L10,8 L10,3 Z M12.2212829,12.1814077 C12.3198892,12.2300728 12.3997029,12.3098866 12.448368,12.4084929 L13.3225168,14.1797118 L15.2771729,14.4637399 C15.5504453,14.5034487 15.7397861,14.7571702 15.7000773,15.0304426 C15.684265,15.1392611 15.6330214,15.2398323 15.5542796,15.3165866 L14.1398772,16.6952882 L14.4737723,18.6420462 C14.5204528,18.9142144 14.3376589,19.1726924 14.0654907,19.2193729 C13.9571118,19.2379613 13.8456278,19.220304 13.7482976,19.1691344 L12,18.25 L10.2517024,19.1691344 C10.0072801,19.2976348 9.70496657,19.2036616 9.57646617,18.9592393 C9.52529663,18.861909 9.50763929,18.750425 9.52622772,18.6420462 L9.86012284,16.6952882 L8.4457204,15.3165866 C8.24797861,15.123836 8.24393246,14.8072794 8.43668307,14.6095376 C8.51343737,14.5307958 8.61400857,14.4795522 8.72282709,14.4637399 L10.6774832,14.1797118 L11.551632,12.4084929 C11.6738431,12.160866 11.973656,12.0591965 12.2212829,12.1814077 Z M14,1 L20,7 L15,7 C14.4871642,7 14.0644928,6.61395981 14.0067277,6.11662113 L14,6 L14,1 Z"/>
</svg>

<svg xmlns="http://www.w3.org/2000/svg" viewBox="0 0 24 24">
  <path d="M12 1v7a1 1 0 0 0 1 1h7v12a2 2 0 0 1-2 2H6a2 2 0 0 1-2-2V3c0-1.1.9-2 2-2h6zm-2 2H6v18h12V11h-5a3 3 0 0 1-3-2.82V3zm2.22 9.18c.1.05.18.13.23.23l.87 1.77 1.96.28a.5.5 0 0 1 .27.86l-1.41 1.38.33 1.94a.5.5 0 0 1-.72.53L12 18.25l-1.75.92a.5.5 0 0 1-.72-.53l.33-1.94-1.41-1.38a.5.5 0 0 1 .27-.86l1.96-.28.87-1.77a.5.5 0 0 1 .67-.23zM14 1l6 6h-5a1 1 0 0 1-1-.88V1z"/>
</svg>
